svg/black/moac.svg

<svg width="32" height="32" viewBox="0 0 32 32" version="1.1" xmlns="http://www.w3.org/2000/svg" xmlns:xlink="http://www.w3.org/1999/xlink"><title>svg/black/moac</title><desc>Created with Sketch.</desc><g id="black/moac" stroke="none" stroke-width="1" fill="none" fill-rule="evenodd"><path d="M16,32 C7.163444,32 0,24.836556 0,16 C0,7.163444 7.163444,0 16,0 C24.836556,0 32,7.163444 32,16 C32,24.836556 24.836556,32 16,32 Z M15.7923077,15.7923077 L9.42307692,9.42307692 L9.28461538,9.21538462 L7.02076923,7 L7.02076923,24.5153846 L9.30538462,24.5153846 L9.30538462,12.4 L14.2207692,17.3846154 L15.8130769,18.9769231 L17.4053846,17.3846154 L22.3207692,12.4 L22.3207692,24.5153846 L24.6053846,24.5153846 L24.6053846,7 L22.3207692,9.21538462 L15.7923077,15.7923077 Z" id="Combined-Shape-Copy" fill="#000" fill-rule="nonzero"/></g></svg>

<svg width="32" height="32" viewBox="0 0 32 32" xmlns="http://www.w3.org/2000/svg"><path d="M16 32C7.163 32 0 24.837 0 16S7.163 0 16 0s16 7.163 16 16-7.163 16-16 16zm-.208-16.208L9.423 9.423l-.138-.208L7.02 7v17.515h2.284V12.4l4.916 4.985 1.592 1.592 1.592-1.592L22.32 12.4v12.115h2.284V7L22.32 9.215l-6.529 6.577z"/></svg>
